X: 1
T: Polksa #8 i D
O: Sweden
R: hambl-polska
Z: 2009 John Chambers <jc:trillian.mit.edu>
S: handwritten notes from the 1970s
M: 3/4
L: 1/8
K: D
|: "D"d2 F2 G>A | B2{cB} A3 B/c/ | d2 F2 G>A | B2{cB} A3f \
| "G"g2 B3 g | "D"f2 A3 f |1,3 "E7"e>f e>d c>B |"A7" B2 A>G F>A :|2 "A7"e>f e>c A>c | "D"d2 d4 :|
|: "D"{de}f2 f>g f>e | d2 d>e d>c | "G"B2 G>B d>B | "D"[B2G2] [A4F4] \
| "A7"e2 e>f e>d | c2 c>d c>B | B2 A>B A>G | "D"G2 F4 |
| "D"{de}f2 f>g f>e | d2 d>e d>c | "G"B2 G>B d>B | "D"[B2G2] [A4F4] \
| "A7"A>B c>d e>f | g>f [ec]>d e>f | ~g2 a>g e>c | "D"d2 d4 :|
